svg/container/container_tone_raspberry.svg

<?xml version="1.0" encoding="UTF-8" standalone="no"?>
<!-- Created with Inkscape (http://www.inkscape.org/) -->

<svg
   xmlns:serif="http://www.serif.com/"
   xmlns:dc="http://purl.org/dc/elements/1.1/"
   xmlns:cc="http://creativecommons.org/ns#"
   xmlns:rdf="http://www.w3.org/1999/02/22-rdf-syntax-ns#"
   xmlns:svg="http://www.w3.org/2000/svg"
   xmlns="http://www.w3.org/2000/svg"
   xmlns:sodipodi="http://sodipodi.sourceforge.net/DTD/sodipodi-0.dtd"
   xmlns:inkscape="http://www.inkscape.org/namespaces/inkscape"
   width="45.827156mm"
   height="52.916664mm"
   viewBox="0 0 45.827156 52.916664"
   version="1.1"
   id="svg8"
   inkscape:version="0.92.4 (5da689c313, 2019-01-14)"
   sodipodi:docname="container_tone_raspberry.svg">
  <defs
     id="defs2" />
  <sodipodi:namedview
     id="base"
     pagecolor="#ffffff"
     bordercolor="#666666"
     borderopacity="1.0"
     inkscape:pageopacity="0.0"
     inkscape:pageshadow="2"
     inkscape:zoom="0.35"
     inkscape:cx="-117.02467"
     inkscape:cy="-454.28574"
     inkscape:document-units="mm"
     inkscape:current-layer="layer1"
     showgrid="false"
     fit-margin-top="0"
     fit-margin-left="0"
     fit-margin-right="0"
     fit-margin-bottom="0"
     inkscape:window-width="2100"
     inkscape:window-height="1234"
     inkscape:window-x="3191"
     inkscape:window-y="-9"
     inkscape:window-maximized="1" />
  <metadata
     id="metadata5">
    <rdf:RDF>
      <cc:Work
         rdf:about="">
        <dc:format>image/svg+xml</dc:format>
        <dc:type
           rdf:resource="http://purl.org/dc/dcmitype/StillImage" />
        <dc:title></dc:title>
      </cc:Work>
    </rdf:RDF>
  </metadata>
  <g
     inkscape:label="Layer 1"
     inkscape:groupmode="layer"
     id="layer1"
     transform="translate(-3.7484889,24.27979)">
    

    

    

    

    

    

    

    

    

    

    

    

    

    <g
   id="g6678"
   transform="matrix(0.26458333,0,0,0.26458333,-249.40246,-266.78417)">
        <g
   transform="translate(1259.9,751.552)"
   id="g5433">
            <g
   transform="translate(0,317.48)"
   id="path4950">
                <path
   id="path6587"
   style="fill:#a63d41;fill-rule:nonzero"
   d="m -303.109,-102.48 v 100 l 86.603,50 v -100 z"
   inkscape:connector-curvature="0" />

            </g>

            <g
   transform="translate(0,317.48)"
   id="path4952">
                <path
   id="path6590"
   style="fill:#c9464b;fill-rule:nonzero"
   d="m -259.808,-127.48 43.302,-25 86.602,50 -86.602,50 -86.603,-50 z"
   inkscape:connector-curvature="0" />

            </g>

            <g
   transform="translate(0,317.48)"
   id="path4954">
                <path
   id="path6593"
   style="fill:#961b1f;fill-rule:nonzero"
   d="m -129.904,-102.48 v 100 l -86.602,50 v -100 z"
   inkscape:connector-curvature="0" />

            </g>

            <g
   transform="matrix(0.866025,0.5,0,1,-38.8685,462.54)"
   id="path4956">
                <rect
   id="rect6596"
   style="fill:#80181b;fill-rule:nonzero"
   height="83.333"
   width="8.3330002"
   y="-86.647003"
   x="-296.785" />

            </g>

            <g
   transform="matrix(0.866025,0.5,0,1,-24.4347,470.873)"
   serif:id="path4956"
   id="path49561">
                <rect
   id="rect6599"
   style="fill:#80181b;fill-rule:nonzero"
   height="83.333"
   width="8.3330002"
   y="-86.647003"
   x="-296.785" />

            </g>

            <g
   transform="matrix(0.866025,0.5,0,1,-10.001,479.206)"
   serif:id="path4956"
   id="path49562">
                <rect
   id="rect6602"
   style="fill:#80181b;fill-rule:nonzero"
   height="83.333"
   width="8.3330002"
   y="-86.647003"
   x="-296.785" />

            </g>

            <g
   transform="matrix(0.866025,0.5,0,1,4.43277,487.54)"
   serif:id="path4956"
   id="path49563">
                <rect
   id="rect6605"
   style="fill:#80181b;fill-rule:nonzero"
   height="83.333"
   width="8.3330002"
   y="-86.647003"
   x="-296.785" />

            </g>

            <g
   transform="matrix(0.866025,0.5,0,1,18.8665,495.873)"
   serif:id="path4956"
   id="path49564">
                <rect
   id="rect6608"
   style="fill:#80181b;fill-rule:nonzero"
   height="83.333"
   width="8.3330002"
   y="-86.647003"
   x="-296.785" />

            </g>

            <g
   transform="matrix(0.866025,0.5,0,1,-39.0619,463.261)"
   id="path4958">
                <path
   id="path6611"
   style="fill:none;fill-rule:nonzero;stroke:#630000;stroke-width:1.63px"
   d="m -296.562,-87.48 v 83.333 h 8.334"
   inkscape:connector-curvature="0" />

            </g>

            <g
   transform="matrix(0.866025,0.5,0,1,-24.6281,471.595)"
   serif:id="path4958"
   id="path49581">
                <path
   id="path6614"
   style="fill:none;fill-rule:nonzero;stroke:#630000;stroke-width:1.63px"
   d="m -296.562,-87.48 v 83.333 h 8.334"
   inkscape:connector-curvature="0" />

            </g>

            <g
   transform="matrix(0.866025,0.5,0,1,-10.1943,479.928)"
   serif:id="path4958"
   id="path49582">
                <path
   id="path6617"
   style="fill:none;fill-rule:nonzero;stroke:#630000;stroke-width:1.63px"
   d="m -296.562,-87.48 v 83.333 h 8.334"
   inkscape:connector-curvature="0" />

            </g>

            <g
   transform="matrix(0.866025,0.5,0,1,4.23939,488.261)"
   serif:id="path4958"
   id="path49583">
                <path
   id="path6620"
   style="fill:none;fill-rule:nonzero;stroke:#630000;stroke-width:1.63px"
   d="m -296.562,-87.48 v 83.333 h 8.334"
   inkscape:connector-curvature="0" />

            </g>

            <g
   transform="matrix(0.866025,0.5,0,1,18.6731,496.595)"
   serif:id="path4958"
   id="path49584">
                <path
   id="path6623"
   style="fill:none;fill-rule:nonzero;stroke:#630000;stroke-width:1.63px"
   d="m -296.562,-87.48 v 83.333 h 8.334"
   inkscape:connector-curvature="0" />

            </g>

            <g
   transform="translate(0,317.48)"
   id="path4988">
                <path
   id="path6626"
   style="fill:none;fill-rule:nonzero;stroke:#630000;stroke-width:1px"
   d="m -173.205,-77.48 v 100"
   inkscape:connector-curvature="0" />

            </g>

            <g
   transform="matrix(0.866025,-0.5,0,1,-20.3044,241.703)"
   id="path5062">
                <path
   id="path6629"
   style="fill:#80181b;fill-rule:nonzero"
   d="m -168.221,-73.314 h 33.333 v 8.334 h -33.333 z"
   inkscape:connector-curvature="0" />

            </g>

            <g
   transform="matrix(0.866025,-0.5,0,1,-20.3044,258.37)"
   serif:id="path5062"
   id="path50621">
                <path
   id="path6632"
   style="fill:#80181b;fill-rule:nonzero"
   d="m -168.221,-73.314 h 33.333 v 8.334 h -33.333 z"
   inkscape:connector-curvature="0" />

            </g>

            <g
   transform="matrix(0.866025,-0.5,0,1,-20.3044,283.37)"
   serif:id="path5062"
   id="path50622">
                <path
   id="path6635"
   style="fill:#80181b;fill-rule:nonzero"
   d="m -168.221,-73.314 h 33.333 v 8.334 h -33.333 z"
   inkscape:connector-curvature="0" />

            </g>

            <g
   transform="matrix(0.866025,-0.5,0,1,-20.3044,300.037)"
   serif:id="path5062"
   id="path50623">
                <path
   id="path6638"
   style="fill:#80181b;fill-rule:nonzero"
   d="m -168.221,-73.314 h 33.333 v 8.334 h -33.333 z"
   inkscape:connector-curvature="0" />

            </g>

            <g
   transform="matrix(0.866025,-0.5,0,1,-63.6057,325.037)"
   serif:id="path5062"
   id="path50624">
                <path
   id="path6641"
   style="fill:#80181b;fill-rule:nonzero"
   d="m -168.221,-73.314 h 33.333 v 8.334 h -33.333 z"
   inkscape:connector-curvature="0" />

            </g>

            <g
   transform="matrix(0.866025,-0.5,0,1,-63.6057,308.37)"
   serif:id="path5062"
   id="path50625">
                <path
   id="path6644"
   style="fill:#80181b;fill-rule:nonzero"
   d="m -168.221,-73.314 h 33.333 v 8.334 h -33.333 z"
   inkscape:connector-curvature="0" />

            </g>

            <g
   transform="matrix(0.866025,-0.5,0,1,-63.6057,283.37)"
   serif:id="path5062"
   id="path50626">
                <path
   id="path6647"
   style="fill:#80181b;fill-rule:nonzero"
   d="m -168.221,-73.314 h 33.333 v 8.334 h -33.333 z"
   inkscape:connector-curvature="0" />

            </g>

            <g
   transform="matrix(0.866025,-0.5,0,1,-63.6057,266.703)"
   serif:id="path5062"
   id="path50627">
                <path
   id="path6650"
   style="fill:#80181b;fill-rule:nonzero"
   d="m -168.221,-73.314 h 33.333 v 8.334 h -33.333 z"
   inkscape:connector-curvature="0" />

            </g>

            <g
   transform="matrix(0.866025,-0.5,0,1,-20.3044,250.037)"
   id="path5064">
                <path
   id="path6653"
   style="fill:none;fill-rule:nonzero;stroke:#630000;stroke-width:2.82999992px"
   d="m -134.888,-81.647 v 8.333 h -33.333"
   inkscape:connector-curvature="0" />

            </g>

            <g
   transform="matrix(0.866025,-0.5,0,1,-20.3044,266.703)"
   serif:id="path5064"
   id="path50641">
                <path
   id="path6656"
   style="fill:none;fill-rule:nonzero;stroke:#630000;stroke-width:2.82999992px"
   d="m -134.888,-81.647 v 8.333 h -33.333"
   inkscape:connector-curvature="0" />

            </g>

            <g
   transform="matrix(0.866025,-0.5,0,1,-20.3044,291.703)"
   serif:id="path5064"
   id="path50642">
                <path
   id="path6659"
   style="fill:none;fill-rule:nonzero;stroke:#630000;stroke-width:2.82999992px"
   d="m -134.888,-81.647 v 8.333 h -33.333"
   inkscape:connector-curvature="0" />

            </g>

            <g
   transform="matrix(0.866025,-0.5,0,1,-20.3044,308.37)"
   serif:id="path5064"
   id="path50643">
                <path
   id="path6662"
   style="fill:none;fill-rule:nonzero;stroke:#630000;stroke-width:2.82999992px"
   d="m -134.888,-81.647 v 8.333 h -33.333"
   inkscape:connector-curvature="0" />

            </g>

            <g
   transform="matrix(0.866025,-0.5,0,1,-63.6057,333.37)"
   serif:id="path5064"
   id="path50644">
                <path
   id="path6665"
   style="fill:none;fill-rule:nonzero;stroke:#630000;stroke-width:2.82999992px"
   d="m -134.888,-81.647 v 8.333 h -33.333"
   inkscape:connector-curvature="0" />

            </g>

            <g
   transform="matrix(0.866025,-0.5,0,1,-63.6057,316.703)"
   serif:id="path5064"
   id="path50645">
                <path
   id="path6668"
   style="fill:none;fill-rule:nonzero;stroke:#630000;stroke-width:2.82999992px"
   d="m -134.888,-81.647 v 8.333 h -33.333"
   inkscape:connector-curvature="0" />

            </g>

            <g
   transform="matrix(0.866025,-0.5,0,1,-63.6057,291.703)"
   serif:id="path5064"
   id="path50646">
                <path
   id="path6671"
   style="fill:none;fill-rule:nonzero;stroke:#630000;stroke-width:2.82999992px"
   d="m -134.888,-81.647 v 8.333 h -33.333"
   inkscape:connector-curvature="0" />

            </g>

            <g
   transform="matrix(0.866025,-0.5,0,1,-63.6057,275.037)"
   serif:id="path5064"
   id="path50647">
                <path
   id="path6674"
   style="fill:none;fill-rule:nonzero;stroke:#630000;stroke-width:2.82999992px"
   d="m -134.888,-81.647 v 8.333 h -33.333"
   inkscape:connector-curvature="0" />

            </g>

        </g>

    </g>

</g>
</svg>

<?xml version="1.0" encoding="UTF-8" standalone="no"?>
<!DOCTYPE svg PUBLIC "-//W3C//DTD SVG 1.1//EN" "http://www.w3.org/Graphics/SVG/1.1/DTD/svg11.dtd">
<svg width="100%" height="100%" viewBox="0 0 217 200" version="1.1" xmlns="http://www.w3.org/2000/svg" xmlns:xlink="http://www.w3.org/1999/xlink" xml:space="preserve" xmlns:serif="http://www.serif.com/" style="fill-rule:evenodd;clip-rule:evenodd;">
    <g transform="matrix(1,0,0,1,-1010.36,-50)">
        <g id="Container-raspberry" serif:id="Container raspberry" transform="matrix(1,0,0,1,1313.47,-115)">
            <g transform="matrix(1,0,0,1,-2128.98,-1247.47)">
                <path d="M1912.47,1612.47L1941.34,1612.47L2042.38,1554.14L1999.08,1529.14L1999.08,1562.47L1912.47,1612.47Z" style="fill-opacity:0.2;"/>
            </g>
            <g id="path4950" transform="matrix(1,0,0,1,0,317.48)">
                <path d="M-303.109,-102.48L-303.109,-2.48L-216.506,47.52L-216.506,-52.48L-303.109,-102.48Z" style="fill:rgb(166,61,65);fill-rule:nonzero;"/>
            </g>
            <g id="path4952" transform="matrix(1,0,0,1,0,317.48)">
                <path d="M-259.808,-127.48L-216.506,-152.48L-129.904,-102.48L-216.506,-52.48L-303.109,-102.48L-259.808,-127.48Z" style="fill:rgb(201,70,75);fill-rule:nonzero;"/>
            </g>
            <g id="path4954" transform="matrix(1,0,0,1,0,317.48)">
                <path d="M-129.904,-102.48L-129.904,-2.48L-216.506,47.52L-216.506,-52.48L-129.904,-102.48Z" style="fill:rgb(150,27,31);fill-rule:nonzero;"/>
            </g>
            <g id="path4956" transform="matrix(0.866025,0.5,-4.80741e-17,1,-38.8685,462.54)">
                <rect x="-296.785" y="-86.647" width="8.333" height="83.333" style="fill:rgb(128,24,27);fill-rule:nonzero;"/>
            </g>
            <g id="path49561" serif:id="path4956" transform="matrix(0.866025,0.5,-4.80741e-17,1,-24.4347,470.873)">
                <rect x="-296.785" y="-86.647" width="8.333" height="83.333" style="fill:rgb(128,24,27);fill-rule:nonzero;"/>
            </g>
            <g id="path49562" serif:id="path4956" transform="matrix(0.866025,0.5,-4.80741e-17,1,-10.001,479.206)">
                <rect x="-296.785" y="-86.647" width="8.333" height="83.333" style="fill:rgb(128,24,27);fill-rule:nonzero;"/>
            </g>
            <g id="path49563" serif:id="path4956" transform="matrix(0.866025,0.5,-4.80741e-17,1,4.43277,487.54)">
                <rect x="-296.785" y="-86.647" width="8.333" height="83.333" style="fill:rgb(128,24,27);fill-rule:nonzero;"/>
            </g>
            <g id="path49564" serif:id="path4956" transform="matrix(0.866025,0.5,-4.80741e-17,1,18.8665,495.873)">
                <rect x="-296.785" y="-86.647" width="8.333" height="83.333" style="fill:rgb(128,24,27);fill-rule:nonzero;"/>
            </g>
            <g id="path4958" transform="matrix(0.866025,0.5,-4.80741e-17,1,-39.0619,463.261)">
                <path d="M-296.562,-87.48L-296.562,-4.147L-288.228,-4.147" style="fill:none;fill-rule:nonzero;stroke:rgb(99,0,0);stroke-width:1.63px;"/>
            </g>
            <g id="path49581" serif:id="path4958" transform="matrix(0.866025,0.5,-4.80741e-17,1,-24.6281,471.595)">
                <path d="M-296.562,-87.48L-296.562,-4.147L-288.228,-4.147" style="fill:none;fill-rule:nonzero;stroke:rgb(99,0,0);stroke-width:1.63px;"/>
            </g>
            <g id="path49582" serif:id="path4958" transform="matrix(0.866025,0.5,-4.80741e-17,1,-10.1943,479.928)">
                <path d="M-296.562,-87.48L-296.562,-4.147L-288.228,-4.147" style="fill:none;fill-rule:nonzero;stroke:rgb(99,0,0);stroke-width:1.63px;"/>
            </g>
            <g id="path49583" serif:id="path4958" transform="matrix(0.866025,0.5,-4.80741e-17,1,4.23939,488.261)">
                <path d="M-296.562,-87.48L-296.562,-4.147L-288.228,-4.147" style="fill:none;fill-rule:nonzero;stroke:rgb(99,0,0);stroke-width:1.63px;"/>
            </g>
            <g id="path49584" serif:id="path4958" transform="matrix(0.866025,0.5,-4.80741e-17,1,18.6731,496.595)">
                <path d="M-296.562,-87.48L-296.562,-4.147L-288.228,-4.147" style="fill:none;fill-rule:nonzero;stroke:rgb(99,0,0);stroke-width:1.63px;"/>
            </g>
            <g id="path4988" transform="matrix(1,0,0,1,0,317.48)">
                <path d="M-173.205,-77.48L-173.205,22.52" style="fill:none;fill-rule:nonzero;stroke:rgb(99,0,0);stroke-width:1px;"/>
            </g>
            <g id="path5062" transform="matrix(0.866025,-0.5,4.80741e-17,1,-20.3044,241.703)">
                <path d="M-168.221,-73.314L-134.888,-73.314L-134.888,-64.98L-168.221,-64.98L-168.221,-73.314Z" style="fill:rgb(128,24,27);fill-rule:nonzero;"/>
            </g>
            <g id="path50621" serif:id="path5062" transform="matrix(0.866025,-0.5,4.80741e-17,1,-20.3044,258.37)">
                <path d="M-168.221,-73.314L-134.888,-73.314L-134.888,-64.98L-168.221,-64.98L-168.221,-73.314Z" style="fill:rgb(128,24,27);fill-rule:nonzero;"/>
            </g>
            <g id="path50622" serif:id="path5062" transform="matrix(0.866025,-0.5,4.80741e-17,1,-20.3044,283.37)">
                <path d="M-168.221,-73.314L-134.888,-73.314L-134.888,-64.98L-168.221,-64.98L-168.221,-73.314Z" style="fill:rgb(128,24,27);fill-rule:nonzero;"/>
            </g>
            <g id="path50623" serif:id="path5062" transform="matrix(0.866025,-0.5,4.80741e-17,1,-20.3044,300.037)">
                <path d="M-168.221,-73.314L-134.888,-73.314L-134.888,-64.98L-168.221,-64.98L-168.221,-73.314Z" style="fill:rgb(128,24,27);fill-rule:nonzero;"/>
            </g>
            <g id="path50624" serif:id="path5062" transform="matrix(0.866025,-0.5,4.80741e-17,1,-63.6057,325.037)">
                <path d="M-168.221,-73.314L-134.888,-73.314L-134.888,-64.98L-168.221,-64.98L-168.221,-73.314Z" style="fill:rgb(128,24,27);fill-rule:nonzero;"/>
            </g>
            <g id="path50625" serif:id="path5062" transform="matrix(0.866025,-0.5,4.80741e-17,1,-63.6057,308.37)">
                <path d="M-168.221,-73.314L-134.888,-73.314L-134.888,-64.98L-168.221,-64.98L-168.221,-73.314Z" style="fill:rgb(128,24,27);fill-rule:nonzero;"/>
            </g>
            <g id="path50626" serif:id="path5062" transform="matrix(0.866025,-0.5,4.80741e-17,1,-63.6057,283.37)">
                <path d="M-168.221,-73.314L-134.888,-73.314L-134.888,-64.98L-168.221,-64.98L-168.221,-73.314Z" style="fill:rgb(128,24,27);fill-rule:nonzero;"/>
            </g>
            <g id="path50627" serif:id="path5062" transform="matrix(0.866025,-0.5,4.80741e-17,1,-63.6057,266.703)">
                <path d="M-168.221,-73.314L-134.888,-73.314L-134.888,-64.98L-168.221,-64.98L-168.221,-73.314Z" style="fill:rgb(128,24,27);fill-rule:nonzero;"/>
            </g>
            <g id="path5064" transform="matrix(0.866025,-0.5,4.80741e-17,1,-20.3044,250.037)">
                <path d="M-134.888,-81.647L-134.888,-73.314L-168.221,-73.314" style="fill:none;fill-rule:nonzero;stroke:rgb(99,0,0);stroke-width:2.83px;"/>
            </g>
            <g id="path50641" serif:id="path5064" transform="matrix(0.866025,-0.5,4.80741e-17,1,-20.3044,266.703)">
                <path d="M-134.888,-81.647L-134.888,-73.314L-168.221,-73.314" style="fill:none;fill-rule:nonzero;stroke:rgb(99,0,0);stroke-width:2.83px;"/>
            </g>
            <g id="path50642" serif:id="path5064" transform="matrix(0.866025,-0.5,4.80741e-17,1,-20.3044,291.703)">
                <path d="M-134.888,-81.647L-134.888,-73.314L-168.221,-73.314" style="fill:none;fill-rule:nonzero;stroke:rgb(99,0,0);stroke-width:2.83px;"/>
            </g>
            <g id="path50643" serif:id="path5064" transform="matrix(0.866025,-0.5,4.80741e-17,1,-20.3044,308.37)">
                <path d="M-134.888,-81.647L-134.888,-73.314L-168.221,-73.314" style="fill:none;fill-rule:nonzero;stroke:rgb(99,0,0);stroke-width:2.83px;"/>
            </g>
            <g id="path50644" serif:id="path5064" transform="matrix(0.866025,-0.5,4.80741e-17,1,-63.6057,333.37)">
                <path d="M-134.888,-81.647L-134.888,-73.314L-168.221,-73.314" style="fill:none;fill-rule:nonzero;stroke:rgb(99,0,0);stroke-width:2.83px;"/>
            </g>
            <g id="path50645" serif:id="path5064" transform="matrix(0.866025,-0.5,4.80741e-17,1,-63.6057,316.703)">
                <path d="M-134.888,-81.647L-134.888,-73.314L-168.221,-73.314" style="fill:none;fill-rule:nonzero;stroke:rgb(99,0,0);stroke-width:2.83px;"/>
            </g>
            <g id="path50646" serif:id="path5064" transform="matrix(0.866025,-0.5,4.80741e-17,1,-63.6057,291.703)">
                <path d="M-134.888,-81.647L-134.888,-73.314L-168.221,-73.314" style="fill:none;fill-rule:nonzero;stroke:rgb(99,0,0);stroke-width:2.83px;"/>
            </g>
            <g id="path50647" serif:id="path5064" transform="matrix(0.866025,-0.5,4.80741e-17,1,-63.6057,275.037)">
                <path d="M-134.888,-81.647L-134.888,-73.314L-168.221,-73.314" style="fill:none;fill-rule:nonzero;stroke:rgb(99,0,0);stroke-width:2.83px;"/>
            </g>
        </g>
    </g>
</svg>
